packages/components/bolt-icons/src/svgs/product/services/industries.svg

<?xml version="1.0" encoding="utf-8"?>
<!-- Generator: Adobe Illustrator 24.0.3, SVG Export Plug-In . SVG Version: 6.00 Build 0)  -->
<svg version="1.1" id="b06e8d55-ae15-4c7a-bcf8-3ec95d8bc8ef"
	 xmlns="http://www.w3.org/2000/svg" xmlns:xlink="http://www.w3.org/1999/xlink" x="0px" y="0px" viewBox="0 0 32 32"
	 enable-background="new 0 0 32 32" xml:space="preserve">
<path id="bc5867a7-659d-4248-b53b-661da1221667" fill-rule="evenodd" clip-rule="evenodd" d="M8,0v6H0v26h32V6h-8V0H8z M10,6V2h12
	v28h-2v-6h-8v6h-2V6z M24,30h6V8h-6V30z M2,30h6V8H2V30z M14,30h4v-4h-4V30z M12,8h8V6h-8V8z M26,14h2v-2h-2V14z M12,14h8v-2h-8V14z
	 M4,14h2v-2H4V14z M26,20h2v-2h-2V20z M12,20h8v-2h-8V20z M4,20h2v-2H4V20z M26,26h2v-2h-2V26z M4,26h2v-2H4V26z"/>
</svg>

<svg id="b06e8d55-ae15-4c7a-bcf8-3ec95d8bc8ef" data-name="Layer 1" xmlns="http://www.w3.org/2000/svg" viewBox="0 0 32 32"><title>industries</title><path id="bc5867a7-659d-4248-b53b-661da1221667" data-name="Page-1" d="M8,0V6H0V32H32V6H24V0Zm2,6V2H22V30H20V24H12v6H10ZM24,30h6V8H24ZM2,30H8V8H2Zm12,0h4V26H14ZM12,8h8V6H12Zm14,6h2V12H26ZM12,14h8V12H12ZM4,14H6V12H4Zm22,6h2V18H26ZM12,20h8V18H12ZM4,20H6V18H4Zm22,6h2V24H26ZM4,26H6V24H4Z" fill="#1f2555" fill-rule="evenodd"/></svg>
